X:66
T:The Maid Behind The Bar
R: Reel
N:page 22
N: heptatonic
N: matches 180
% Nottingham Music Database
S:Fiddler's Fakebook, via PR
M:4/4
L:1/8
K:D
"D"FAAB AFED|FAAB ABde|\
"Bm"fBBA Bcde|"D"f2af "A7"efdB| "D"~A3B AFED|
"D"FAAB ABde| "Bm"fBBA BcdB|"A7"AFEF "D"D2z2::\
"D"faa2 fdde|fdad bdd2|
"Em"gfga beef|"A7"g{f}ebe gee2|\
"D" faaf bfaf|defd efde|\
"Bm"fBBA BcdB|"A7"AFEF "D"D2z2:|
